Hatter-kde-dark/actions/16/insert-endnote.svg

<?xml version="1.0" encoding="UTF-8"?>
<svg viewBox="0 0 16 16" xmlns="http://www.w3.org/2000/svg">
 <defs id="defs3051">
  <style id="current-color-scheme" type="text/css">.ColorScheme-Text {
        color:#dedede;
      }
      .ColorScheme-Highlight {
        color:#3daee9;
      }</style>
 </defs>
 <path class="ColorScheme-Text" d="m2 2v7 1 1 1h2v2h7v-1h-6v-1h6v-1-2-4h2v2h1v-3h-3v-2h-8-1zm1 1h7v7 1h-7v-1-1-6zm1 1v1h5v-1h-5zm0 2v1h3v-1h-3z" fill="currentColor"/>
 <path class="ColorScheme-Highlight" d="m13 8v1h1v-1h-1zm-9 1v1h4v-1h-4zm9 1v4h1v-4h-1z" fill="currentColor"/>
</svg>

<svg xmlns="http://www.w3.org/2000/svg" viewBox="0 0 16 16">
  <defs id="defs3051">
    <style type="text/css" id="current-color-scheme">
      .ColorScheme-Text {
        color:#dedede;
      }
      .ColorScheme-Highlight {
        color:#3daee9;
      }
      </style>
  </defs>
  <path 
        style="fill:currentColor;fill-opacity:1;stroke:none"
        d="M 2 2 L 2 9 L 2 10 L 2 11 L 2 12 L 4 12 L 4 14 L 11 14 L 11 13 L 5 13 L 5 12 L 11 12 L 11 11 L 11 9 L 11 5 L 13 5 L 13 7 L 14 7 L 14 4 L 11 4 L 11 2 L 3 2 L 2 2 z M 3 3 L 10 3 L 10 10 L 10 11 L 3 11 L 3 10 L 3 9 L 3 3 z M 4 4 L 4 5 L 9 5 L 9 4 L 4 4 z M 4 6 L 4 7 L 7 7 L 7 6 L 4 6 z "
        class="ColorScheme-Text"
        />
  <path 
        style="fill:currentColor;fill-opacity:1;stroke:none"
        d="M 13 8 L 13 9 L 14 9 L 14 8 L 13 8 z M 4 9 L 4 10 L 8 10 L 8 9 L 4 9 z M 13 10 L 13 14 L 14 14 L 14 10 L 13 10 z "
        class="ColorScheme-Highlight"
        />
</svg>
